!!!!SEGMENT: pl-kk--kk-i-382--001_anonim--nro-1-rorate-caeli.krn
!!!cenid: 18xx:1453
!!!COM: Anonim
!!!COM-rismID:
!!!CDT:
!!!CNT:
!!!OPR: Nro 1
!!!OTL: Rorate caeli
!!!OMV: 001
!!!PDT:
!!!AGN: Sacred
!!!SMS-siglum: PL-Kk
!!!SMS-shelfmark: Kk.I.382
!!!SMS-shelfwork: 001-001 M
!!!SMS-variant:
!!!SMS-altvar:
!!!NIFC-rismSourceID: 1001139069
!!!NIFC-islandoraID: pl-kk:6162
!!!URL-pdf-islandora: https://repozytorium.nifc.pl/islandora/object/pl-kk%3A6162/datastream/PDF/view
!!!URL-scan: https://polish.musicsources.pl/pl/lokalizacje/galeria/rekopisy/5994 @EN{Scan on Polish Music Herritage in Open Access Website} @PL{Skany w portalu Dziedzictwo Muzyki Polskiej w otwartym dostępie}
!!!ONB-nifc: UWAGA: obsada: S/T 1, T 2, A/B 1, B 2. Skan 0003 (m.in.)
!!!AIN: 1 alto 1 bass 2 tenor
!!!key:
**kern	**text	**kern	**text	**kern	**text	**kern	**text
*part4	*part4	*part3	*part3	*part2	*part2	*part1	*part1
*staff4	*staff4	*staff3	*staff3	*staff2	*staff2	*staff1	*staff1
*Ibass	*	*Itenor	*	*Ialto	*	*Itenor	*
*I"Basso II	*	*I"Tenore II	*	*I"Alto vel Basso I	*	*I"Soprano vel Tenore I.	*
*I'B II	*	*I'T II	*	*I'A vel B	*	*I'S vel T I	*
*clefF4	*	*clefC4	*	*clefC3	*	*clefC1	*
*k[]	*	*k[]	*	*k[]	*	*k[]	*
*C:	*	*C:	*	*C:	*	*C:	*
*M3/2	*	*M3/2	*	*M3/2	*	*M3/4	*
*	*	*	*	*	*	*rscale:1/2	*
!LO:TX:a:t=P:problem=metrum z kreską ułamkową	!	!LO:TX:a:t=P:problem=metrum z kreską ułamkową	!	!LO:TX:a:t=P:problem=metrum z kreską ułamkową	!	!LO:TX:a:t=P:problem=metrum z kreską ułamkową	!
!	!	!LO:TX:a:t=P:problem=all\right&colon; global	!	!	!	!LO:TX:a:t=P:problem=tytuł na pięciolinii przed kluczem	!
!LO:TX:rj:a:t=in C.	!	!LO:TX:rj:a:t=in C.	!	!LO:TX:a:t=P:problem=all\right&colon; global	!	!LO:TX:a:i:t=Nro I. Rorate.	!
!LO:TX:a:i:t=Nro I. Rorate	!	!LO:TX:a:i:t=Nro. I. Rorate	!	!LO:TX:a:t=P:problem=tytuł na pięciolinii przed kluczem	!	!LO:TX:a:t=P:problem=partia zapisana w metrum 3/4 [zapisano zgodnie z pozostałymi głosami; użyto *rscale]	!
!LO:TX:a:t=P:problem=tytuł na pięciolinii przed kluczem	!	!LO:TX:a:t=P:problem=tytuł na pięciolinii przed kluczem	!	!LO:TX:a:i:t=Nro I. Rorate	!	!LO:TX:a:t=P:problem=all\right&colon; global	!
2C/	Ro-	2c\	Ro-	2e\	Ro-	2g\	Ro-
=1	=1	=1	=1	=1	=1	=1	=1
!LO:TX:a:t=P:problem=all\right&colon; global	!	!	!	!	!	!	!
2G\	-ra-	2B\	-ra-	2d\	-ra-	2g\	-ra-
2G\	-te	2B\	-te	2d\	-te	2g\	-te
2G\	ro-	2B\	ro-	2d\	ro-	2g\	ro-
=2	=2	=2	=2	=2	=2	=2	=2
2C/	-ra-	2c\	-ra-	2e\	-ra-	2g\	-ra-
2C/	-te	2c\	-te	2e\	-te	2g\	-te
2GG/	ro-	2d\	ro-	2g\	ro-	2b\	ro-
=3	=3	=3	=3	=3	=3	=3	=3
1D	-ra-	1d	-ra-	1f#X	-ra-	1a	-ra-
2D\	-te	2d\	-te	2f#\	-te	2a\	-te
=4	=4	=4	=4	=4	=4	=4	=4
2D\	ro-	2d\	ro-	2f#X\	ro-	2a\	ro-
2G\	-ra-	2d\	-ra-	2g\	-ra-	2b\	-ra-
2F#X\	-te	2d\	-te	2d\	-te	2a\	-te
=5	=5	=5	=5	=5	=5	=5	=5
!LO:SIC:v:l:s=cae-	!	!LO:SIC:v:l:s=cae-	!	!LO:SIC:v:l:s=cae-	!	!LO:SIC:v:l:s=cae-	!
1G	ce-	1d	ce-	1g	ce-	1b	ce-
2c\	-li	2e\	-li	2g\	-li	2cc\	-li
!	!	!LO:LB:g=original	!	!LO:LB:g=original	!	!LO:LB:g=original	!
=6	=6	=6	=6	=6	=6	=6	=6
(>2B\	de-	2d\	de-	1g	de-	(>2g\	de-
2.A\)	.	2.c\	.	.	.	2.a\)	.
.	.	.	.	2f#X\	-su-	.	.
!LO:N:vis=8	!	!	!	!	!	!	!
4A\	-su-	4c\	-su-	.	.	4a\	-su-
!LO:LB:g=original	!	!	!	!	!	!	!
=7	=7	=7	=7	=7	=7	=7	=7
1.G	-per	1.B	-per	1.g	-per	1.b	-per
=8	=8	=8	=8	=8	=8	=8	=8
2c\	et	2e\	et	2g\	et	2cc\	et
2c\	nu-	2e\	nu-	2g\	nu-	2cc\	nu-
2B\	-bes	2d\	-bes	2g\	-bes	2dd\	-bes
=9	=9	=9	=9	=9	=9	=9	=9
1c	plu-	1e	plu-	1g	plu-	1cc	nu-
2G\	-ant	2d\	-ant	2g\	-ant	2b\	-bes
=10	=10	=10	=10	=10	=10	=10	=10
(>2.A\	plu-	2.c\	plu-	1fn	plu-	1a	plu-
4B\)	.	4d\	.	.	.	.	.
2c\	-ant	2e\	.	2e\	-ant	2g\	-ant
=11	=11	=11	=11	=11	=11	=11	=11
(>2F\	ju-	2c\	-ant	2f\	ju-	(>2a\	ju-
1G)	.	2c\	iu-	1d	.	1g)	.
.	.	2B\	.	.	.	.	.
=12	=12	=12	=12	=12	=12	=12	=12
1C	-stum	1c	-stum	1e	-stum	1g	-stum
2c\	a-	2G/	a-	2e\	a-	2cc\	a-
!	!	!LO:LB:g=original	!	!	!	!	!
=13	=13	=13	=13	=13	=13	=13	=13
1G#X	-pe-	1G#X	-pe-	1e	-pe-	1b	-pe-
2G#\	-ri-	2G#/	-ri-	2e\	-ri-	2b\	-ri-
!	!	!	!	!	!	!LO:LB:g=original	!
=14	=14	=14	=14	=14	=14	=14	=14
1A	-a-	1c	-a-	1e	-a-	1a	-a-
2E\	-tur	2e\	-tur	2e\	-tur	2b\	-tur
!	!	!	!	!LO:LB:g=original	!	!	!
=15	=15	=15	=15	=15	=15	=15	=15
2F\	ter-	2A\	ter-	2c\	ter-	2a\	ter-
2F\	-ra	2c\	-ra	2e\	-ra	2a\	-ra
2D/	et	2d\	et	2f\	et	2b\	et
!LO:LB:g=original	!	!	!	!	!	!	!
=16	=16	=16	=16	=16	=16	=16	=16
2.E\	ger-	2.B\	ger-	2.e\	ger-	2.g#X\	ger-
4E\	-mi-	4B\	-mi-	4e\	-mi-	4g#\	-mi-
2E\	-net	2B\	-net	2e\	-net	2g#\	-net
=17	=17	=17	=17	=17	=17	=17	=17
2.E\	ger-	2.B\	ger-	2.e\	ger-	2.g#X\	ger-
4E\	-mi-	4B\	-mi-	4e\	-mi-	4g#\	-mi-
2E\	-net	2B\	-net	2e\	-net	2g#\	-net
=18	=18	=18	=18	=18	=18	=18	=18
2.A\	ger-	2.c\	ger-	2.e\	ger-	2.a\	ger-
2A\	-mi-	4c\	-mi-	4e\	-mi-	4a\	-mi-
.	.	2c\	-net	2e\	-net	2e/	-net
4G\	-net	.	.	.	.	.	.
=19	=19	=19	=19	=19	=19	=19	=19
2.F\	ger-	2.A\	ger-	2.fn\	ger-	2.a\	ger-
4E\	-mi-	4A\	-mi-	4f\	-mi-	4a\	-mi-
2D\	-net	2d\	-net	2f\	-net	2b\	-net
!	!	!LO:LB:g=original	!	!	!	!LO:LB:g=original	!
=20	=20	=20	=20	=20	=20	=20	=20
1E	sal-	1B	sal-	1e	sal-	1g#X	sal-
2A\	-va-	2c\	-va-	2e\	-va-	2a\	-va-
!	!	!	!	!LO:LB:g=original	!	!	!
=21	=21	=21	=21	=21	=21	=21	=21
(>2D\	-to-	(>2d\	-to-	2f\	-to-	(>1a	-to-
1E)	.	1B)	.	1e	.	.	.
.	.	.	.	.	.	2g#X\)	.
=22	=22	=22	=22	=22	=22	=22	=22
1.AA	-rem	1.c#X	-rem.	1.e	-rem.	1.a	-rem,
!LO:LB:g=original	!	!	!	!	!	!	!
=23||	=23||	=23||	=23||	=23||	=23||	=23||	=23||
2D\	Be-	2d\	Be-	2f#X\	Be-	2a\	be-
2D\	-ne-	2d\	-ne-	2f#\	-ne-	2a\	-ne-
2D\	-di-	2d\	-di-	2f#\	-di-	2a\	-di-
=24	=24	=24	=24	=24	=24	=24	=24
1G	-xi-	1d	-xi-	1g	-xi-	1b	-xi-
2E\	-sti	2e\	-sti	2g\	-sti	2cc\	-sti
=25	=25	=25	=25	=25	=25	=25	=25
2.F#X\	Do-	2.d\	Do-	2.a\	Do-	2.cc\	Do-
4F#\	-mi-	4d\	-mi-	4a\	-mi-	4cc\	-mi-
2G\	-ne	2d\	-ne	2g\	-ne	2b\	-ne
=26	=26	=26	=26	=26	=26	=26	=26
1D	ter-	1d	ter-	1f#X	ter-	1a	ter-
2BB/	-ram	2d\	-ram	2g\	-ram	2b\	-ram
!	!	!	!	!	!	!LO:LB:g=original	!
=27	=27	=27	=27	=27	=27	=27	=27
2.C/	ter-	2e\	ter-	2.e\	ter-	2.gn\	ter-
.	.	2A\	-ram	.	.	.	.
4C/	-ram	.	.	4f#X\	-ram	4a\	-ram
2BB/	tu-	2d\	tu-	2g\	tu-	2b\	tu-
!	!	!LO:LB:g=original	!	!LO:LB:g=original	!	!	!
=28	=28	=28	=28	=28	=28	=28	=28
2C/	-am	2d\	-am	2g\	-am	2g\	-am
2AA/	a-	2c\	a-	2f#X\	a-	2a\	a-
!	!	!LO:TX:b:t=+	!	!	!	!	!
2AA/	-ver-	2c\	-ver-	2f#\	-ver-	2a\	-ver-
=29	=29	=29	=29	=29	=29	=29	=29
2GG/	-ti-	2B\	-ti-	2g\	-ti-	2b\	-ti-
4G\	-sti	4B\	-sti	4g\	-sti	4b\	-sti
4G\	ca-	4B\	cap-	4g\	cap-	4b\	cap-
!LO:LB:g=original	!	!	!	!	!	!	!
4D\	-pti-	4d\	-ti-	4f#X\	-ti-	4a\	-ti-
4D\	-vi-	4d\	-vi-	4f#\	-vi-	4a\	-vi-
=30	=30	=30	=30	=30	=30	=30	=30
1E	-ta-	1B	-ta-	1g	-ta-	1g	-ta-
2C/	-tem	2e\	-tem	2g\	-tem	2cc\	-tem
=31	=31	=31	=31	=31	=31	=31	=31
(>2C/	Ja-	2e\	ja-	2g\	Ja-	(>2cc\	Ja-
1D)	.	1d	.	1f#X	.	1a)	.
=32	=32	=32	=32	=32	=32	=32	=32
1.GG	-cob	1.d	-cob.	1.g	-cob.	1.b	-cob.
!	!	!	!	!	!	!LO:LB:g=original	!
=33||	=33||	=33||	=33||	=33||	=33||	=33||	=33||
2.C/	Glo-	2.c\	Glo-	2.e\	Glo-	2.g\	glo-
4C/	-ri-	4c\	-ri-	4e\	-ri-	4g\	-ri-
2C/	-a	2c\	-a	2e\	-a	2g\	-a
!	!	!	!	!LO:LB:g=original	!	!	!
=34	=34	=34	=34	=34	=34	=34	=34
2F\	pa-	2c\	pa-	2fn\	pa-	2a\	pa-
2F\	-tri	2c\	-tri	2f\	-tri	2a\	-tri
2E\	et	2c\	et	2g\	et	2cc\	et
!	!	!LO:LB:g=original	!	!	!	!	!
=35	=35	=35	=35	=35	=35	=35	=35
2.F\	fi-	2.c\	fi-	2.f\	fi-	2.a\	fi-
4F\	-li-	4c\	-li-	4f\	-li-	4a\	-li-
2C/	-o	2c\	-o	2e\	-o	2g\	-o
=36	=36	=36	=36	=36	=36	=36	=36
1G	et	1B	et	1d	et	1g	et
2G\	spi-	2B\	spi-	2d\	spi-	2g\	spi-
!LO:LB:g=original	!	!	!	!	!	!	!
=37	=37	=37	=37	=37	=37	=37	=37
(>2.E\	-ri-	2.c\	-ri-	2.g\	-ri-	(>2.cc\	-ri-
4F\	.	4d\	.	(>4f\	.	4a\)	.
4G\	.	4B\	.	4e\	.	4b\	-tu-
4E\	.	4c\	.	4g\	.	4g\	-i
=38	=38	=38	=38	=38	=38	=38	=38
2F\)	.	2.c\	.	2.f\)	.	(>2a\	ſan-
2BB/	-tu-	.	.	.	.	[>1g)	.
.	.	4d\	-tu-	4f\	-tu-	.	.
2C/	-i	2c\	-i	2e\	-i	.	.
!	!	!	!	!	!	!LO:LB:g=original	!
=39	=39	=39	=39	=39	=39	=39	=39
(>2C/	san-	1c	ſan-	(>2e\	san-	1.g]	.
2G\	.	.	.	1d)	.	.	.
2GG/)	.	2B\	.	.	.	.	.
=40	=40	=40	=40	=40	=40	=40	=40
2C/	-cto	2c\	-cto	2e\	-cto	2g\	-cto
2c\	si-	2e\	si-	2g\	si-	2cc\	si-
2A\	-cut	2c\	-cut	2f#X\	-cut	2cc\	-cut
!	!	!	!	!LO:LB:g=original	!	!	!
=41	=41	=41	=41	=41	=41	=41	=41
2B\	e-	2B\	e-	2f#X\	e-	2dd\	e-
2G\	-rat	2e\	-rat	2g\	-rat	2b\	-rat
4A\	in	4c\	in	4e\	in	4cc\	in
4A\	prin-	4c\	prin-	4e\	prin-	4cc\	prin-
!	!	!LO:LB:g=original	!	!	!	!	!
=42	=42	=42	=42	=42	=42	=42	=42
2.F#X\	-ci-	2.d\	-ci-	2.d\	-ci-	2.a\	-ci-
4F#\	-pi-	4d\	-pi-	4d\	-pi-	4a\	-pi-
2G\	-o	2d\	-o	2d\	-o	2b\	-o
=43	=43	=43	=43	=43	=43	=43	=43
2D\	et	2d\	et	2d\	et	2a\	et
2r	.	(>4d\	nunc	(>4f#X\	nunc	(>4dd\	nunc
.	.	4e\)	.	4g\)	.	4ee\)	.
2r	.	(>4d\	et	(>4f#\	et	(>4dd\	.
.	.	4c\)	.	4e\)	.	4cc\)	et
!LO:LB:g=original	!	!	!	!	!	!LO:LB:g=original	!
=44	=44	=44	=44	=44	=44	=44	=44
2r	.	2r	.	2d\	sem-	2b\	sem-
!	!	!	!	!LO:TX:a:t=P:problem=zbędna kreska taktowa pojedyncza	!	!	!
(>4G\	nunc	(>4B\	nunc	2d\	-per	2b\	-per
4A\)	.	4c\)	.	.	.	.	.
(>4G\	et	(>4B\	et	4d\	et	4b\	et
4F#X\)	.	4A\)	.	4d\	in	4b\	in
=45	=45	=45	=45	=45	=45	=45	=45
!	!	!	!	!LO:SIC:v:l:s=sae-	!	!LO:SIC:v:l:s=sae-	!
2.E\	sem-	2.G/	sem-	2.e\	se-	2.b\	se-
4E\	-per	4G/	-per	4e\	-cu-	4b\	-cu-
4A\	et	4c\	et	2e\	-la	2cc\	-la
4A\	in	4c\	in	.	.	.	.
!	!	!	!	!LO:LB:g=original	!	!	!
=46	=46	=46	=46	=46	=46	=46	=46
!LO:SIC:v:l:s=sae-	!	!LO:SIC:v:l:s=sae-	!	!LO:SIC:v:l:s=sae-	!	!LO:SIC:v:l:s=sae-	!
2F#X\	se-	2A\	se-	1f#X	se-	2.dd\	se-
4F#\	-cu-	4A\	-cu-	.	.	.	.
4F#\	-la	4A\	-la	.	.	4dd\	-cu-
!LO:SIC:v:l:s=sae-	!	!LO:SIC:v:l:s=sae-	!	!	!	!	!
[>2G\	se-	[>2B\	se-	2d\	-cu-	2dd\	-lo-
=47	=47	=47	=47	=47	=47	=47	=47
2G\]	.	2B\]	.	(>2d\	-lo-	2dd\	-rum
1E	-cu-	1e	-cu-	1g	.	(>2dd\	a-
.	.	.	.	.	.	2cc#X\)	.
!	!	!LO:LB:g=original	!	!	!	!	!
=48	=48	=48	=48	=48	=48	=48	=48
1.D	-lo-	1.A	-lo-	1.f#X	.	1.dd	-men
=49	=49	=49	=49	=49	=49	=49	=49
2GG/	-rum	2B\	-rum	2g\)	-rum	2g\	in
!LO:SIC:v:l:s=sae-	!	!LO:SIC:v:l:s=sae-	!	!	!	!LO:SIC:v:l:s=sae-	!
2BB/	se-	2B\	se-	2r	.	2b\	se-
!	!	!	!	!	!	!LO:LB:g=original	!
4BB/	-cu-	4B\	-cu-	2r	.	4b\	-cu-
4BB/	-la	4B\	-la	.	.	4b\	-la
!LO:LB:g=original	!	!	!	!	!	!	!
=50	=50	=50	=50	=50	=50	=50	=50
!	!	!	!	!	!	!LO:SIC:v:l:s=sae-	!
2C/	in	2c\	in	2e\	in	1cc	se-
!LO:SIC:v:l:s=sae-	!	!LO:SIC:v:l:s=sae-	!	!LO:SIC:v:l:s=sae-	!	!	!
2E\	se-	2c\	se-	2e\	se-	.	.
4E\	-cu-	4c\	-cu-	4e\	-cu-	2g\	-cu-
4E\	-la	4c\	-la	4e\	-la	.	.
=51	=51	=51	=51	=51	=51	=51	=51
!LO:SIC:v:l:s=sae-	!	!LO:SIC:v:l:s=sae-	!	!LO:SIC:v:l:s=sae-	!	!	!
2.F\	se-	2.c\	se-	2.c\	se-	2.a\	-lo-
4F\	-cu-	4c\	-cu-	4c\	-cu-	4a\	-rum
2C/	-lo-	2c\	-lo-	2e\	-lo-	2g\	a-
=52	=52	=52	=52	=52	=52	=52	=52
2C/	-rum	2c\	-rum	2e\	-rum	2g\	-men
(>2G\	a-	(>2c\	a-	1d	a-	1g	a-
2GG/)	.	2B\)	.	.	.	.	.
=53	=53	=53	=53	=53	=53	=53	=53
1.C	-men.	1.c	-men.	1.e	-men.	1.g	-men.
!LO:TX:a:t=P:problem=komentarz na pięciolinii za końcową kreską taktową	!	!	!	!	!	!LO:TX:a:t=P:problem=komentarz na pięciolinii za końcową kreską taktową	!
!LO:TX:a:i:t=Rorate Da Capo.	!	!	!	!	!	!LO:TX:a:i:t=Rorate Da Capo.	!
!LO:TX:b:i:t=ſeque Kyrie V&colon; ſ&colon;	!	!	!	!	!	!	!
!LO:TX:b:t=P:problem=komentarz pod pięciolinią za końcową kreską taktową	!	!	!	!	!	!	!
==	==	==	==	==	==	==	==
*-	*-	*-	*-	*-	*-	*-	*-
!!!system-decoration: [(s1,s2,s3,s4)]
!!!RDF**kern: > = above
!!!RDF**kern: < = below
!!!EED: Mateusz Mrugas
!!!EEV: 2021-02-01
!!!ENC: Andrzej Kubiczek
!!!END: 2021-01-27
